X:1046
T:Rose of Trallee, The
C:Joe Buchanan's Scottish Tome - Page 633.2
I:633 2
C:Carl Allison
R:Waltz
L:1/4
M:3/4
K:A
E | "A"E F E | "A7"c>B A | "D"A D F | "A"F E>z E | "E7"E F E | "F#m"E A>A | "B"A>G A | "E7"B>z E/E/ |
"A"E F E | "A7"c>B A | "D"A D F | "A"F E>z E | "E7"E d>d | "A"c>A F | "E7"E F A | "A"A>z A/B/ |
"F#m"c c>B | A>z A/G/ | "D"F (F/=F/) (^F/G/) | "C#"=F C c | "F#m"c F d | "A"c c>B | "Bm"A>B G | "F#m"F2 "E7"E |
"A"E>z F/E/ | "A7"c>B A | "D"A D F | "A"F !fermata!E>z E/ | "E7"E d d | "A"c A>z F/ | "E7"E c>B | "A"A2 z/ |]
